icons/mug.svg

<svg width="24" height="24" viewBox="0 0 24 24" fill="none" xmlns="http://www.w3.org/2000/svg">
<path d="M5 13C5 14.6569 6.34315 16 8 16H14C15.6569 16 17 14.6569 17 13V4H5V13Z" stroke="#1E293B" stroke-width="2" stroke-linecap="round" stroke-linejoin="round"/>
<path d="M3 20H19" stroke="#1E293B" stroke-width="2" stroke-linecap="round" stroke-linejoin="round"/>
<path d="M17 4H20C20.5523 4 21 4.44772 21 5V8C21 8.55228 20.5523 9 20 9H17" stroke="#1E293B" stroke-width="2" stroke-linecap="round" stroke-linejoin="round"/>
</svg>

<svg
  width="24"
  height="24"
  viewBox="0 0 24 24"
  xmlns="http://www.w3.org/2000/svg"
  fill="none"
  stroke="currentColor"
  stroke-width="2"
  stroke-linecap="round"
  stroke-linejoin="round"
>
  <path d="M5 13a3 3 0 0 0 3 3h6a3 3 0 0 0 3-3V4H5v9z" />
  <path d="M3 20h16" />
  <path d="M17 4h3a1 1 0 0 1 1 1v3a1 1 0 0 1-1 1h-3" />
</svg>
